X: 5726
T: Cage, The
R: hornpipe
M: 4/4
K: Gmajor
AB|cBdc BAcB|A[EC][EC][EC] [E2C2]FG|AFBA cBdc|BAGA [B2G2]ed|
cBdc BAcB|AFBA GFED|CEAE FdBG|[B2G2]A2 A2:|
|:(3efg|aAce agba|gfag f2 (3agf|eEGB ecfe|dcac B2AB|
cBdc BAcB|AFBA GFED|CEAE FdBG|[B2G2]A2 A2:|
GA|BAcB AGBA|G[DB,][DB,][DB,] [D2B,2]EF|GEAG BAcB|AGFG [A2F2]dc|
BAcB AGBA|GEAG FEDC|B,DGD EcAF|[A2F2]G2 G2:|
|:(3def|gGBd gfag|fegf e2 (3gfe|dDFA dBed|cBgB A2GA|
BAcB AGBA|GEAG FEDC|B,DGD EcAF|[A2F2]G2 G2:|

